X:235
T:College Hornpipe TS.235
M:C
L:1/8
Q:1/2=90
S:Thomas Sands’ MS,1810,Lincolnshire
R:.hornpipe
O:England;Lincolnshire
Z:vmp.Ruairidh Greig, 2011
K:Bb
(BA)|B2B,4(FE)|(DF)B4(3dc=B|c2C4(cB)|(Ac)f4(ga)|
(ba).g.f (gf).e.d|(ed).c.B BAGF|(GB).A.c Bdce|”qu. in ms”d2B4:|
|:(FE)|DF(BF) (DF)(BF)|G2E4(GF)|(=EG)(cG) (EG)(cG)|A2F4(BA)|
(Bd)g2(gf)(ed)|(ed).c.B (BA).G.F|.G.B.A.c .B.d.c.e|(d2B4):|]

